X: 613
T: Buduan qiao wugeng
L: 1/8
M: 2/4
K: G
A2d B [I:setbarnb 1]| 
d2E G | 
A2A2 | 
d2g e | 
d4 | 
B A/ B/ d B | 
A G E D | 
G2G2 | 
A d B A | 
G2E A | 
G4 | 
d g e d | 
c3d | 
g g e d | 
d4 | 
B A/ B/ d B | 
A G E D | 
G2G2 | 
E D G B | 
A G E G | 
A4 | 
d2e d | 
d Ad2 | 
d> B A G | 
G EA2 | 
G E D/ G/ e/ B/ | 
D2D2 | 
B A G A/ B/ | 
D3E | 
D4 |]

@@@ Tune index: 9487
